X: 30
T: Vray Dieu quel payne messe
N: Derived from Com3050-Vray_Dieu_quel_payne_messe.krn
C: Loyset Comp\`ere
%%abc-version 2.0
%%abcx-abcm2ps-target-version 5.9.1 (29 Sep 2008)
%%abc-creator hum2abc beta
%%abcx-conversion-date 2019/02/16 20:28:09
%%abc-edited-by Jesse Rodin
%%abc-edited-by Megan K. Eagen 2013/11/29
%%abcx-initial-encoding-date 2013/11/29/
%%humdrum-veritas 3766157400
%%humdrum-veritas-data 2537727627
%%linebreak <none>
%%barnumbers 0
L: 1/4
M: 2/1
Q: 1/2=120
%%staves [1 2 3 4]
V: 1 clef=treble
V: 2 clef=treble-8
V: 3 clef=treble-8
V: 4 clef=bass
K: F
[V:1] z8 | 
[V:2] G8 | 
[V:3] z8 | 
[V:4] z8 | 
[V:1] G8 | 
[V:2] G4G4 | 
[V:3] z8 | 
[V:4] z8 | 
[V:1] G4d4 | 
[V:2] d4d4- | 
[V:3] G8 | 
[V:4] z8 | 
[V:1] d4d4 | 
[V:2] d2e2f4 | 
[V:3] G4d4 | 
[V:4] z8 | 
[V:1] d6c2 | 
[V:2] g6f2 | 
[V:3] d4d4 | 
[V:4] G,8 | 
[V:1] B2A2B4 | 
[V:2] g2d2g4- | 
[V:3] d8 | 
[V:4] G,8 | 
[V:1] c8 | 
[V:2] g2fef4- | 
[V:3] c6BA | 
[V:4] A,4F,4 | 
[V:1] z8 | 
[V:2] f2ede4 | 
[V:3] B4B4 | 
[V:4] G,8 | 
[V:1] z8 | 
[V:2] f8 | 
[V:3] c8 | 
[V:4] F,8- | 
[V:1] f8 | 
[V:2] a8 | 
[V:3] z8 | 
[V:4] F,8 | 
[V:1] e4d4 | 
[V:2] g4f4 | 
[V:3] z8 | 
[V:4] C4D4 | 
[V:1] d4^c4 | 
[V:2] e8 | 
[V:3] z8 | 
[V:4] A,8 | 
[V:1] d8 | 
[V:2] d8 | 
[V:3] f8 | 
[V:4] B,6A,2 | 
[V:1] z8 | 
[V:2] z8 | 
[V:3] e4d4 | 
[V:4] G,4F,4 | 
[V:1] z8 | 
[V:2] z8 | 
[V:3] d4^c4 | 
[V:4] E,8 | 
[V:1] z4d4 | 
[V:2] f6g2 | 
[V:3] d8- | 
[V:4] D,6E,2 | 
[V:1] d4d4 | 
[V:2] a4g4- | 
[V:3] d8 | 
[V:4] F,4G,4 | 
[V:1] c4A4 | 
[V:2] g2^fe^f4 | 
[V:3] z8 | 
[V:4] A,8 | 
[V:1] B6A2 | 
[V:2] g4d4- | 
[V:3] z8 | 
[V:4] G,8- | 
[V:1] G8 | 
[V:2] d2c2B4 | 
[V:3] z4d4 | 
[V:4] G,8 | 
[V:1] F8 | 
[V:2] A8 | 
[V:3] d4d4 | 
[V:4] D,6E,2 | 
[V:1] z8 | 
[V:2] A3Bc4 | 
[V:3] c4A4 | 
[V:4] F,8 | 
[V:1] z8 | 
[V:2] B2d3ef2- | 
[V:3] B6A2 | 
[V:4] G,6A,2 | 
[V:1] z8 | 
[V:2] f2ede4 | 
[V:3] G4G4 | 
[V:4] B,8 | 
[V:1] A6B2 | 
[V:2] f8- | 
[V:3] F8 | 
[V:4] C4F,4- | 
[V:1] c4c4 | 
[V:2] f4e4 | 
[V:3] z8 | 
[V:4] F,2G,2A,4 | 
[V:1] d8 | 
[V:2] d6e2 | 
[V:3] z8 | 
[V:4] B,6A,G, | 
[V:1] c4B4 | 
[V:2] f4g4 | 
[V:3] z8 | 
[V:4] A,4G,4 | 
[V:1] A4A4 | 
[V:2] c8 | 
[V:3] A6B2 | 
[V:4] F,8 | 
[V:1] G6A2 | 
[V:2] e6f2 | 
[V:3] c8 | 
[V:4] C,8 | 
[V:1] B4A4- | 
[V:2] g4f4- | 
[V:3] d8 | 
[V:4] G,4D,4 | 
[V:1] A2G2G4- | 
[V:2] f2e2d2c2 | 
[V:3] c4B4 | 
[V:4] F,4G,4 | 
[V:1] G4^F4 | 
[V:2] d8 | 
[V:3] A8 | 
[V:4] D,8 | 
[V:1] [M:3/1]G8G4 | 
[V:2] [M:3/1]d4e4g4 | 
[V:3] [M:3/1]G12 | 
[V:4] [M:3/1]G,12 | 
[V:1] d8d4 | 
[V:2] f8d4 | 
[V:3] z4z4G4 | 
[V:4] B,12 | 
[V:1] d8d4 | 
[V:2] g8g4 | 
[V:3] d8d4 | 
[V:4] G,12 | 
[V:1] d6c2A4 | 
[V:2] f12 | 
[V:3] d8d4 | 
[V:4] D,6E,2F,4 | 
[V:1] B8A4- | 
[V:2] d4g6f2 | 
[V:3] d8c4 | 
[V:4] G,8A,4 | 
[V:1] A4G8 | 
[V:2] f8e4 | 
[V:3] A4B8 | 
[V:4] F,4G,8 | 
[V:1] A8c4- | 
[V:2] f8e4 | 
[V:3] c12 | 
[V:4] F,8A,4- | 
[V:1] c4d8 | 
[V:2] c4f4d4 | 
[V:3] f12 | 
[V:4] A,4B,8 | 
[V:1] c8d4 | 
[V:2] g4a6g2 | 
[V:3] e8d4 | 
[V:4] C8B,4 | 
[V:1] B4c4A4 | 
[V:2] g8^f4 | 
[V:3] d4c8 | 
[V:4] G,4A,8 | 
[V:1] B8B4 | 
[V:2] g12 | 
[V:3] d8d4 | 
[V:4] G,12 | 
[V:1] d6c2B4 | 
[V:2] f12- | 
[V:3] d8d4 | 
[V:4] B,12 | 
[V:1] A8A4 | 
[V:2] f12 | 
[V:3] c8A4 | 
[V:4] F,12 | 
[V:1] G8G4 | 
[V:2] d8e4 | 
[V:3] B6A2G4 | 
[V:4] G,6A,2B,4 | 
[V:1] A8G4 | 
[V:2] f6e2d4 | 
[V:3] F8G4 | 
[V:4] C8B,4 | 
[V:1] c8c4 | 
[V:2] c4e4f4 | 
[V:3] A6B2c4 | 
[V:4] C4A,8 | 
[V:1] B4A6G2 | 
[V:2] g4f6e2 | 
[V:3] d8c4 | 
[V:4] G,4D,4F,4 | 
[V:1] G8^F4 | 
[V:2] d6c2d4 | 
[V:3] B4A8 | 
[V:4] G,4D,8 | 
[V:1] G12- | 
[V:2] B4_e8 | 
[V:3] G12- | 
[V:4] G,12- | 
[V:1] G12 |]  
[V:2] d12 |]  
[V:3] G12 |]  
[V:4] G,12 |]  



